Sources/FrostedUI/Resources/Icons.xcassets/infoFilled16.imageset/info-filled-16.svg

<svg width="16" height="16" viewBox="0 0 16 16" fill="none" xmlns="http://www.w3.org/2000/svg" data-fui-icon="true">
  <path
    d="M8 7C8.41421 7 8.75 7.33579 8.75 7.75V12.5H10.25C10.6642 12.5 11 12.8358 11 13.25C11 13.6642 10.6642 14 10.25 14H5.75C5.33579 14 5 13.6642 5 13.25C5 12.8358 5.33579 12.5 5.75 12.5H7.25V8.5H5.75C5.33579 8.5 5 8.16421 5 7.75C5 7.33579 5.33579 7 5.75 7H8ZM7.25 2C8.07843 2 8.75 2.67157 8.75 3.5C8.75 4.32843 8.07843 5 7.25 5C6.42157 5 5.75 4.32843 5.75 3.5C5.75 2.67157 6.42157 2 7.25 2Z"
    fill="currentColor"
  />
</svg>

<svg xmlns="http://www.w3.org/2000/svg" width="16" height="16" fill="none" data-fui-icon="true" viewBox="0 0 16 16"><path fill="currentColor" d="M8 7a.75.75 0 0 1 .75.75v4.75h1.5a.75.75 0 0 1 0 1.5h-4.5a.75.75 0 0 1 0-1.5h1.5v-4h-1.5a.75.75 0 0 1 0-1.5zm-.75-5a1.5 1.5 0 1 1 0 3 1.5 1.5 0 0 1 0-3"/></svg>
